ZUCCAL
CUT["Die Nachtigall"
    SITZT A SCHOENS VOEGERL AUF'M DANNABAUM]
REG[Europa, Mitteleuropa, Oesterreich]
KEY[Z1263  16  G 3/8]
MEL[3_3_3_  4_3_4_  5_3_1_
    3_3_3_  4_4_4_  5__0_
    3_3_3_  4_3_4_  5_3_1_
    3_3_3_  4_4342  1__0_ //] >>
FCT[Natur und Welt]
